subtitles-outline.svg

<svg fill="currentColor" viewBox="0 0 24 24"><path d="M20 4a2 2 0 0 1 2 2v12a2 2 0 0 1-2 2H4a2 2 0 0 1-2-2V6a2 2 0 0 1 2-2zm0 14V6H4v12zM6 10h2v2H6zm0 4h8v2H6zm10 0h2v2h-2zm-6-4h8v2h-8z"/></svg>

<svg  viewBox="0 0 24 24" fill="currentColor"><path  d="M20,4A2,2 0 0,1 22,6V18A2,2 0 0,1 20,20H4A2,2 0 0,1 2,18V6A2,2 0 0,1 4,4H20M20,18V6H4V18H20M6,10H8V12H6V10M6,14H14V16H6V14M16,14H18V16H16V14M10,10H18V12H10V10Z"/></svg>
